.local/share/icons/Gruvbox-Plus-Dark/apps/scalable/pulseeffects.svg

<svg xmlns="http://www.w3.org/2000/svg" style="isolation:isolate" width="256" height="256" viewBox="0 0 256 256">
 <defs>
  <filter id="rXUMloSHLvDx4J0LUN6gkGnjdwYs0Ce3" width="400%" height="400%" x="-200%" y="-200%" color-interpolation-filters="sRGB" filterUnits="objectBoundingBox">
   <feGaussianBlur xmlns="http://www.w3.org/2000/svg" in="SourceGraphic" stdDeviation="4.294"/>
   <feOffset xmlns="http://www.w3.org/2000/svg" dx="0" dy="4" result="pf_100_offsetBlur"/>
   <feFlood xmlns="http://www.w3.org/2000/svg" flood-opacity=".4"/>
   <feComposite xmlns="http://www.w3.org/2000/svg" in2="pf_100_offsetBlur" operator="in" result="pf_100_dropShadow"/>
   <feBlend xmlns="http://www.w3.org/2000/svg" in="SourceGraphic" in2="pf_100_dropShadow" mode="normal"/>
  </filter>
 </defs>
 <g filter="url(#rXUMloSHLvDx4J0LUN6gkGnjdwYs0Ce3)">
  <linearGradient id="_lgradient_249" x1="0" x2="0" y1="0" y2="1" gradientTransform="matrix(244.648309,0,0,228.338396,5.68,11.95)" gradientUnits="userSpaceOnUse">
   <stop offset="0%" style="stop-color:#b16286"/>
   <stop offset="100%" style="stop-color:#8f3f71"/>
  </linearGradient>
  <path fill="url(#_lgradient_249)" d="M 165.688919 11.95 C 239.744626 11.95 250.328309 22.507198 250.328309 96.493859 L 250.328309 155.744653 C 250.328309 229.73091 239.744626 240.288396 165.688919 240.288396 L 90.319393 240.288396 C 16.26369 240.288396 5.68 229.73091 5.68 155.744653 L 5.68 96.493859 C 5.68 22.507198 16.26369 11.95 90.319393 11.95 L 165.688919 11.95 Z"/>
 </g>
 <g>
  <g opacity=".3">
   <path d="M 75.272727 68.681818 C 69.795682 68.681818 65.386364 73.091136 65.386364 78.568182 L 65.386364 177.431818 C 65.386364 182.908864 69.795682 187.318182 75.272727 187.318182 C 80.749773 187.318182 85.159091 182.908864 85.159091 177.431818 L 85.159091 78.568182 C 85.159091 73.091136 80.749773 68.681818 75.272727 68.681818 Z"/>
  </g>
  <linearGradient id="_lgradient_250" x1="0" x2="0" y1="0" y2="1" gradientTransform="matrix(19.772727,0,0,79.090909,65.386364,108.227273)" gradientUnits="userSpaceOnUse">
   <stop offset="0%" style="stop-color:#fabd2f"/>
   <stop offset="100%" style="stop-color:#b57614"/>
  </linearGradient>
  <path fill="url(#_lgradient_250)" d="M 75.272727 108.227273 C 69.795682 108.227273 65.386364 112.636591 65.386364 118.113636 L 65.386364 177.431818 C 65.386364 182.908864 69.795682 187.318182 75.272727 187.318182 C 80.749773 187.318182 85.159091 182.908864 85.159091 177.431818 L 85.159091 118.113636 C 85.159091 112.636591 80.749773 108.227273 75.272727 108.227273 Z"/>
  <defs>
   <filter id="8dIF3wsDYZaxWD7NX8YrsTyrkzzkSDRh" width="400%" height="400%" x="-200%" y="-200%" color-interpolation-filters="sRGB" filterUnits="objectBoundingBox">
    <feGaussianBlur xmlns="http://www.w3.org/2000/svg" stdDeviation="4.294"/>
   </filter>
  </defs>
  <g opacity=".4" filter="url(#8dIF3wsDYZaxWD7NX8YrsTyrkzzkSDRh)">
   <path d="M 95.045455 104.931818 C 95.045455 115.851994 86.192903 124.704545 75.272727 124.704545 C 64.352552 124.704545 55.5 115.851994 55.5 104.931818 C 55.5 94.011642 64.352552 85.159091 75.272727 85.159091 C 86.192903 85.159091 95.045455 94.011642 95.045455 104.931818 Z"/>
  </g>
  <linearGradient id="_lgradient_251" x1="0" x2="0" y1="0" y2="1" gradientTransform="matrix(39.545455,0,0,39.545455,55.5,81.863636)" gradientUnits="userSpaceOnUse">
   <stop offset="0%" style="stop-color:#ebdbb2"/>
   <stop offset="100%" style="stop-color:#a89984"/>
  </linearGradient>
  <path fill="url(#_lgradient_251)" d="M 95.045455 101.636364 C 95.045455 112.556539 86.192903 121.409091 75.272727 121.409091 C 64.352552 121.409091 55.5 112.556539 55.5 101.636364 C 55.5 90.716188 64.352552 81.863636 75.272727 81.863636 C 86.192903 81.863636 95.045455 90.716188 95.045455 101.636364 Z"/>
  <g opacity=".3">
   <path d="M 180.727273 68.681818 C 175.250227 68.681818 170.840909 73.091136 170.840909 78.568182 L 170.840909 177.431818 C 170.840909 182.908864 175.250227 187.318182 180.727273 187.318182 C 186.204318 187.318182 190.613636 182.908864 190.613636 177.431818 L 190.613636 78.568182 C 190.613636 73.091136 186.204318 68.681818 180.727273 68.681818 Z"/>
  </g>
  <linearGradient id="_lgradient_252" x1="0" x2="0" y1="0" y2="1" gradientTransform="matrix(19.772727,0,0,58.672273,170.840909,128.645909)" gradientUnits="userSpaceOnUse">
   <stop offset="0%" style="stop-color:#fabd2f"/>
   <stop offset="100%" style="stop-color:#b57614"/>
  </linearGradient>
  <path fill="url(#_lgradient_252)" d="M 180.727273 128.645909 C 175.250227 128.645909 170.840909 133.055227 170.840909 138.532273 L 170.840909 177.431818 C 170.840909 182.908864 175.250227 187.318182 180.727273 187.318182 C 186.204318 187.318182 190.613636 182.908864 190.613636 177.431818 L 190.613636 138.532273 C 190.613636 133.055227 186.204318 128.645909 180.727273 128.645909 Z"/>
  <defs>
   <filter id="EDnYO0lo7mPofhyimTQCdXNE19yYljPq" width="400%" height="400%" x="-200%" y="-200%" color-interpolation-filters="sRGB" filterUnits="objectBoundingBox">
    <feGaussianBlur xmlns="http://www.w3.org/2000/svg" stdDeviation="4.294"/>
   </filter>
  </defs>
  <g opacity=".4" filter="url(#EDnYO0lo7mPofhyimTQCdXNE19yYljPq)">
   <path d="M 200.5 124.704545 C 200.5 135.624721 191.647448 144.477273 180.727273 144.477273 C 169.807097 144.477273 160.954545 135.624721 160.954545 124.704545 C 160.954545 113.78437 169.807097 104.931818 180.727273 104.931818 C 191.647448 104.931818 200.5 113.78437 200.5 124.704545 Z"/>
  </g>
  <linearGradient id="_lgradient_253" x1="0" x2="0" y1="0" y2="1" gradientTransform="matrix(39.545455,0,0,39.545455,160.954545,101.636364)" gradientUnits="userSpaceOnUse">
   <stop offset="0%" style="stop-color:#ebdbb2"/>
   <stop offset="100%" style="stop-color:#a89984"/>
  </linearGradient>
  <path fill="url(#_lgradient_253)" d="M 200.5 121.409091 C 200.5 132.329267 191.647448 141.181818 180.727273 141.181818 C 169.807097 141.181818 160.954545 132.329267 160.954545 121.409091 C 160.954545 110.488915 169.807097 101.636364 180.727273 101.636364 C 191.647448 101.636364 200.5 110.488915 200.5 121.409091 Z"/>
  <g opacity=".3">
   <path d="M 128 68.681818 C 122.522955 68.681818 118.113636 73.091136 118.113636 78.568182 L 118.113636 177.431818 C 118.113636 182.908864 122.522955 187.318182 128 187.318182 C 133.477045 187.318182 137.886364 182.908864 137.886364 177.431818 L 137.886364 78.568182 C 137.886364 73.091136 133.477045 68.681818 128 68.681818 Z"/>
  </g>
  <linearGradient id="_lgradient_254" x1="0" x2="0" y1="0" y2="1" gradientTransform="matrix(19.772727,0,0,32.954545,118.113636,154.363636)" gradientUnits="userSpaceOnUse">
   <stop offset="0%" style="stop-color:#fabd2f"/>
   <stop offset="100%" style="stop-color:#b57614"/>
  </linearGradient>
  <path fill="url(#_lgradient_254)" d="M 128 154.363636 C 122.522955 154.363636 118.113636 158.772955 118.113636 164.25 L 118.113636 177.431818 C 118.113636 182.908864 122.522955 187.318182 128 187.318182 C 133.477045 187.318182 137.886364 182.908864 137.886364 177.431818 L 137.886364 164.25 C 137.886364 158.772955 133.477045 154.363636 128 154.363636 Z"/>
  <defs>
   <filter id="7wnWY62zzZJBL6PaXHVBUQnunvF79bKD" width="400%" height="400%" x="-200%" y="-200%" color-interpolation-filters="sRGB" filterUnits="objectBoundingBox">
    <feGaussianBlur xmlns="http://www.w3.org/2000/svg" stdDeviation="4.294"/>
   </filter>
  </defs>
  <g opacity=".4" filter="url(#7wnWY62zzZJBL6PaXHVBUQnunvF79bKD)">
   <path d="M 147.772727 151.068182 C 147.772727 161.988358 138.920176 170.840909 128 170.840909 C 117.079824 170.840909 108.227273 161.988358 108.227273 151.068182 C 108.227273 140.148006 117.079824 131.295455 128 131.295455 C 138.920176 131.295455 147.772727 140.148006 147.772727 151.068182 Z"/>
  </g>
  <linearGradient id="_lgradient_255" x1="0" x2="0" y1="0" y2="1" gradientTransform="matrix(39.545455,0,0,39.545455,108.227273,128)" gradientUnits="userSpaceOnUse">
   <stop offset="0%" style="stop-color:#ebdbb2"/>
   <stop offset="100%" style="stop-color:#a89984"/>
  </linearGradient>
  <path fill="url(#_lgradient_255)" d="M 147.772727 147.772727 C 147.772727 158.692903 138.920176 167.545455 128 167.545455 C 117.079824 167.545455 108.227273 158.692903 108.227273 147.772727 C 108.227273 136.852552 117.079824 128 128 128 C 138.920176 128 147.772727 136.852552 147.772727 147.772727 Z"/>
 </g>
</svg>

<svg width="256" height="256" style="isolation:isolate" version="1.1" xmlns="http://www.w3.org/2000/svg">
  <g transform="translate(0 -.1185)" filter="url(#a)">
    <linearGradient id="b" x1=".5002" x2=".5002" y2="1" gradientTransform="matrix(244,0,0,228,5.981,12.12)" gradientUnits="userSpaceOnUse">
      <stop stop-color="#83a598" offset="0"/>
      <stop stop-color="#458588" offset="1"/>
    </linearGradient>
    <path d="m165 12.12c72 0 85 15 85 87v56c0 70-13 85-85 85h-74c-72 0-85-15-85-85v-56c0-72 13-87 85-87z" fill="url(#b)"/>
  </g>
  <g transform="matrix(1.11 0 0 1.11 -14.02 -14.02)" style="isolation:isolate">
    <g opacity=".3">
      <path d="m75.27 68.68c-5.477 0-9.886 4.409-9.886 9.886v98.86c0 5.477 4.409 9.886 9.886 9.886 5.477 0 9.886-4.409 9.886-9.886v-98.86c0-5.477-4.409-9.886-9.886-9.886z"/>
    </g>
    <path d="m75.27 108.2c-5.477 0-9.886 4.409-9.886 9.886v59.32c0 5.477 4.409 9.886 9.886 9.886 5.477 0 9.886-4.409 9.886-9.886v-59.32c0-5.477-4.409-9.886-9.886-9.886z" fill="url(#_lgradient_250)"/>
    <path d="m75.27 108.2c-5.477 0-9.886 4.409-9.886 9.886v59.32c0 5.477 4.409 9.886 9.886 9.886 5.477 0 9.886-4.409 9.886-9.886v-59.32c0-5.477-4.409-9.886-9.886-9.886z" fill="#83a598" opacity=".5" style="isolation:isolate"/>
    <g filter="url(#8dIF3wsDYZaxWD7NX8YrsTyrkzzkSDRh)" opacity=".4">
      <path d="m95.04 104.9c0 10.92-8.853 19.77-19.77 19.77-10.92 0-19.77-8.853-19.77-19.77 0-10.92 8.853-19.77 19.77-19.77 10.92 0 19.77 8.853 19.77 19.77z"/>
    </g>
    <path d="m95.04 101.6c0 10.92-8.853 19.77-19.77 19.77-10.92 0-19.77-8.853-19.77-19.77 0-10.92 8.853-19.77 19.77-19.77 10.92 0 19.77 8.853 19.77 19.77z" fill="url(#_lgradient_251)"/>
    <g opacity=".3">
      <path d="m180.7 68.68c-5.477 0-9.886 4.409-9.886 9.886v98.86c0 5.477 4.409 9.886 9.886 9.886 5.477 0 9.886-4.409 9.886-9.886v-98.86c0-5.477-4.409-9.886-9.886-9.886z"/>
    </g>
    <path d="m180.7 128.6c-5.477 0-9.886 4.409-9.886 9.886v38.9c0 5.477 4.409 9.886 9.886 9.886 5.477 0 9.886-4.409 9.886-9.886v-38.9c0-5.477-4.409-9.886-9.886-9.886z" fill="url(#_lgradient_252)"/>
    <path d="m180.7 128.6c-5.477 0-9.886 4.409-9.886 9.886v38.9c0 5.477 4.409 9.886 9.886 9.886 5.477 0 9.886-4.409 9.886-9.886v-38.9c0-5.477-4.409-9.886-9.886-9.886z" fill="#83a598" opacity=".5" style="isolation:isolate"/>
    <g filter="url(#EDnYO0lo7mPofhyimTQCdXNE19yYljPq)" opacity=".4">
      <path d="m200.5 124.7c0 10.92-8.853 19.77-19.77 19.77-10.92 0-19.77-8.853-19.77-19.77 0-10.92 8.853-19.77 19.77-19.77 10.92 0 19.77 8.853 19.77 19.77z"/>
    </g>
    <path d="m200.5 121.4c0 10.92-8.853 19.77-19.77 19.77-10.92 0-19.77-8.853-19.77-19.77 0-10.92 8.853-19.77 19.77-19.77 10.92 0 19.77 8.853 19.77 19.77z" fill="url(#_lgradient_253)"/>
    <g opacity=".3">
      <path d="m128 68.68c-5.477 0-9.886 4.409-9.886 9.886v98.86c0 5.477 4.409 9.886 9.886 9.886 5.477 0 9.886-4.409 9.886-9.886v-98.86c0-5.477-4.409-9.886-9.886-9.886z"/>
    </g>
    <path d="m128 154.4c-5.477 0-9.886 4.409-9.886 9.886v13.18c0 5.477 4.409 9.886 9.886 9.886 5.477 0 9.886-4.409 9.886-9.886v-13.18c0-5.477-4.409-9.886-9.886-9.886z" fill="url(#_lgradient_254)"/>
    <path d="m128 154.4c-5.477 0-9.886 4.409-9.886 9.886v13.18c0 5.477 4.409 9.886 9.886 9.886 5.477 0 9.886-4.409 9.886-9.886v-13.18c0-5.477-4.409-9.886-9.886-9.886z" fill="#83a598" opacity=".5" style="isolation:isolate"/>
    <g filter="url(#7wnWY62zzZJBL6PaXHVBUQnunvF79bKD)" opacity=".4">
      <path d="m147.8 151.1c0 10.92-8.853 19.77-19.77 19.77s-19.77-8.853-19.77-19.77c0-10.92 8.853-19.77 19.77-19.77s19.77 8.853 19.77 19.77z"/>
    </g>
    <path d="m147.8 147.8c0 10.92-8.853 19.77-19.77 19.77s-19.77-8.853-19.77-19.77c0-10.92 8.853-19.77 19.77-19.77s19.77 8.853 19.77 19.77z" fill="url(#_lgradient_255)"/>
  </g>
  <defs>
    <linearGradient id="linearGradient31" x1=".5002" x2=".5002" y2="1" gradientTransform="matrix(244,0,0,228,5.988,12.12)" gradientUnits="userSpaceOnUse">
      <stop stop-color="#d5c4a1" offset="0"/>
      <stop stop-color="#d5c4a1" stop-opacity=".09804" offset=".1"/>
      <stop stop-color="#282828" stop-opacity=".1" offset=".9"/>
      <stop stop-color="#282828" stop-opacity=".4" offset="1"/>
    </linearGradient>
    <linearGradient id="_lgradient_250" x2="0" y2="1" gradientTransform="matrix(19.77 0 0 79.09 65.39 108.2)" gradientUnits="userSpaceOnUse">
      <stop stop-color="#d5c4a1" offset="0"/>
      <stop stop-color="#ebdbb2" offset="1"/>
    </linearGradient>
    <linearGradient id="_lgradient_251" x2="0" y2="1" gradientTransform="matrix(39.54 0 0 39.54 55.5 81.86)" gradientUnits="userSpaceOnUse">
      <stop stop-color="#ebdbb2" offset="0"/>
      <stop stop-color="#a89984" offset="1"/>
    </linearGradient>
    <linearGradient id="_lgradient_252" x2="0" y2="1" gradientTransform="matrix(19.77 0 0 58.67 170.8 128.6)" gradientUnits="userSpaceOnUse">
      <stop stop-color="#d5c4a1" offset="0"/>
      <stop stop-color="#ebdbb2" offset="1"/>
    </linearGradient>
    <linearGradient id="_lgradient_253" x2="0" y2="1" gradientTransform="matrix(39.54 0 0 39.54 161 101.6)" gradientUnits="userSpaceOnUse">
      <stop stop-color="#ebdbb2" offset="0"/>
      <stop stop-color="#a89984" offset="1"/>
    </linearGradient>
    <linearGradient id="_lgradient_254" x2="0" y2="1" gradientTransform="matrix(19.77 0 0 32.96 118.1 154.4)" gradientUnits="userSpaceOnUse">
      <stop stop-color="#d5c4a1" offset="0"/>
      <stop stop-color="#ebdbb2" offset="1"/>
    </linearGradient>
    <linearGradient id="_lgradient_255" x2="0" y2="1" gradientTransform="matrix(39.54 0 0 39.54 108.2 128)" gradientUnits="userSpaceOnUse">
      <stop stop-color="#ebdbb2" offset="0"/>
      <stop stop-color="#a89984" offset="1"/>
    </linearGradient>
  </defs>
  <g transform="translate(.0005039 -.1185)" opacity=".5">
    <path d="m91 12.12c-72 0-85 15-85 87v56c0 70 13 85 85 85h74c72 0 85-15 85-85v-56c0-72-13-87-85-87zm0 4h74c68 0 80 15 80 83v56c0 66-12 81-80 81h-74c-68 0-80-15-80-81v-56c0-68 12-83 80-83z" fill="url(#linearGradient31)" opacity="1"/>
  </g>
</svg>
